X: 1
T: All the Blue Bonnets are Over the Border
M: 6/8
L: 1/8
K: AMix
|:"A"A>AA c2e | a2a a2e | "G"gag "D"f<af | "A"ecA "E7"B2c \
| "A"A>AA c2e | a2a a2e | "D"fed "A"cde | "D"f<ac "E7"B3 :|
|:"A"Ace ecA | "D"fed "A"cBA | "A"Ace "F#m"fga | "Bm"ABc "E7"B2A \
| "A"Ace ecA | "D"fed "A"cBA | "D"agf "A"ece | "D"f<ac "E7"B3 :|
